src/assets/button-invisible-icon-white.svg

<?xml version="1.0" encoding="UTF-8" standalone="no"?>
<svg
   height="36"
   width="36"
   version="1.1"
   id="svg1122"
   sodipodi:docname="button-invisible-icon-white.svg"
   inkscape:version="1.2 (dc2aedaf03, 2022-05-15)"
   xmlns:inkscape="http://www.inkscape.org/namespaces/inkscape"
   xmlns:sodipodi="http://sodipodi.sourceforge.net/DTD/sodipodi-0.dtd"
   xmlns="http://www.w3.org/2000/svg"
   xmlns:svg="http://www.w3.org/2000/svg">
  <defs
     id="defs1126" />
  <sodipodi:namedview
     id="namedview1124"
     pagecolor="#ffffff"
     bordercolor="#666666"
     borderopacity="1.0"
     inkscape:showpageshadow="2"
     inkscape:pageopacity="0.0"
     inkscape:pagecheckerboard="0"
     inkscape:deskcolor="#d1d1d1"
     showgrid="false"
     inkscape:zoom="5.6527778"
     inkscape:cx="-23.085995"
     inkscape:cy="44.04914"
     inkscape:window-width="1920"
     inkscape:window-height="1011"
     inkscape:window-x="0"
     inkscape:window-y="0"
     inkscape:window-maximized="1"
     inkscape:current-layer="svg1122" />
  <path
     fill="currentColor"
     d="m 11.149554,25.53348 1.566964,-2.83259 Q 10.96875,21.43527 9.984375,19.5067 9,17.57812 9,15.42857 9,12.99777 10.225446,10.90848 5.625,13.25893 2.571429,18 q 3.35491,5.18304 8.578125,7.53348 z m 7.814732,-15.24777 q 0,-0.40178 -0.28125,-0.68303 Q 18.401786,9.32143 18,9.32143 q -2.511161,0 -4.309152,1.79799 -1.797991,1.79799 -1.797991,4.30915 0,0.40179 0.28125,0.68304 0.28125,0.28125 0.683036,0.28125 0.401786,0 0.683036,-0.28125 0.28125,-0.28125 0.28125,-0.68304 0,-1.72768 1.225446,-2.95312 Q 16.272321,11.25 18,11.25 q 0.401786,0 0.683036,-0.28125 0.28125,-0.28125 0.28125,-0.68304 z m 7.29241,-3.83705 q 0,0.14063 -0.02009,0.1808 Q 24.127231,10.40625 19.908481,18 q -4.21875,7.59375 -6.348214,11.39062 l -0.984375,1.78795 Q 12.375,31.5 12.013393,31.5 11.772321,31.5 9.321429,30.09375 9,29.89286 9,29.53125 9,29.29018 9.883929,27.78348 7.011161,26.47768 4.590402,24.30804 2.169643,22.13839 0.401786,19.38616 0,18.76339 0,18 0,17.23661 0.401786,16.61384 3.475446,11.89286 8.035714,9.16071 12.595982,6.42857 18,6.42857 q 1.787946,0 3.616071,0.34152 L 22.700893,4.82143 Q 22.901786,4.5 23.263393,4.5 q 0.100446,0 0.361607,0.12054 0.261161,0.12053 0.622768,0.31138 0.361607,0.19085 0.662946,0.37165 0.30134,0.1808 0.632813,0.37165 0.331473,0.19085 0.391741,0.23103 0.321428,0.20089 0.321428,0.54241 z M 27,15.42857 q 0,2.79241 -1.587054,5.09264 -1.587053,2.30022 -4.19866,3.30468 l 5.625,-10.08482 Q 27,14.64509 27,15.42857 Z M 36,18 q 0,0.70312 -0.401786,1.38616 -0.783482,1.28571 -2.189732,2.91295 -3.013393,3.45535 -6.981027,5.36384 Q 22.459821,29.57143 18,29.57143 l 1.486607,-2.65179 q 4.258929,-0.3616 7.885045,-2.75223 Q 30.997768,21.77679 33.428571,18 31.118304,14.40402 27.763393,12.09375 l 1.265625,-2.25 q 1.908482,1.28571 3.666294,3.07366 1.757813,1.78795 2.902902,3.69643 Q 36,17.29687 36,18 Z"
     id="path1173"
     style="font-variation-settings:normal;opacity:1;vector-effect:none;fill:#ffffff;fill-opacity:1;stroke-width:2;stroke-linecap:butt;stroke-linejoin:miter;stroke-miterlimit:4;stroke-dasharray:none;stroke-dashoffset:0;stroke-opacity:1;-inkscape-stroke:none;stop-color:#000000;stop-opacity:1" />
</svg>

<svg height="36" width="36" xmlns="http://www.w3.org/2000/svg"><path fill="currentColor" d="m11.15 25.533 1.567-2.832q-1.748-1.266-2.733-3.194Q9 17.578 9 15.429q0-2.431 1.225-4.52-4.6 2.35-7.654 7.091 3.355 5.183 8.579 7.533zm7.814-15.247q0-.402-.281-.683-.281-.282-.683-.282-2.511 0-4.31 1.798-1.797 1.798-1.797 4.31 0 .401.281.683.281.28.683.28t.683-.28q.281-.282.281-.683 0-1.728 1.226-2.954Q16.272 11.25 18 11.25q.402 0 .683-.281t.281-.683zm7.293-3.837q0 .14-.02.18-2.11 3.777-6.329 11.371-4.218 7.594-6.348 11.39l-.984 1.789q-.201.321-.563.321-.24 0-2.692-1.406Q9 29.893 9 29.53q0-.24.884-1.748-2.873-1.305-5.294-3.475-2.42-2.17-4.188-4.922Q0 18.763 0 18t.402-1.386q3.073-4.721 7.634-7.453Q12.596 6.429 18 6.429q1.788 0 3.616.341l1.085-1.949q.2-.321.562-.321.1 0 .362.12.261.121.623.312.361.19.663.372.301.18.633.371.331.191.391.231.322.201.322.543zm.743 8.98q0 2.792-1.587 5.092t-4.199 3.305L26.84 13.74q.161.904.161 1.688ZM36 18q0 .703-.402 1.386-.783 1.286-2.19 2.913-3.013 3.455-6.98 5.364Q22.46 29.57 18 29.57l1.487-2.651q4.259-.362 7.885-2.753 3.626-2.39 6.057-6.167-2.31-3.596-5.666-5.906l1.266-2.25q1.909 1.285 3.666 3.073 1.758 1.788 2.903 3.697Q36 17.297 36 18Z" style="font-variation-settings:normal;opacity:1;vector-effect:none;fill:#fff;fill-opacity:1;stroke-width:2;stroke-linecap:butt;stroke-linejoin:miter;stroke-miterlimit:4;stroke-dasharray:none;stroke-dashoffset:0;stroke-opacity:1;-inkscape-stroke:none;stop-color:#000;stop-opacity:1"/></svg>
